!!!COM:	de Orto, Marbrianus
!!!CDT:	~1460///-1529//
!!!OPR:	Missa [Ad fugam]
!!!ONM:	3
!!!OTL:	Credo
!!!AGN:	Mass; Credo
!!!SCT:	Ort1006c
!!!SCA:	Ort1006c
!!!voices-OPR:	4
!!!voices:	4
**kern	**text	**kern	**text	**kern	**text	**kern	**text
*staff4	*staff4	*staff3	*staff3	*staff2	*staff2	*staff1	*staff1
*Ivox	*	*Ivox	*	*Ivox	*	*Ivox	*
*I"Bassus	*	*I"Tenor	*	*I"Altus	*	*I"Discantus	*
*I'B	*	*I'T	*	*I'A	*	*I'D	*
*>[A,B,C,D]	*>[A,B,C,D]	*>[A,B,C,D]	*>[A,B,C,D]	*>[A,B,C,D]	*>[A,B,C,D]	*>[A,B,C,D]	*>[A,B,C,D]
*>A	*>A	*>A	*>A	*>A	*>A	*>A	*>A
*clefF4	*	*clefGv2	*	*clefGv2	*	*clefG2	*
*k[b-]	*	*k[b-e-]	*	*k[b-]	*	*k[b-]	*
*M2/1	*	*M2/1	*	*M2/1	*	*M2/1	*
*met(C)	*	*met(C)	*	*met(C)	*	*met(C)	*
=1-	=1-	=1-	=1-	=1-	=1-	=1-	=1-
!	!	!LO:TX:X=-40:Z=8:t=(Tenor flat signature is editorial.)	!	!	!	!	!
!	!	!	!	!	!	!LO:TX:X=-40:Z=8:t=Canon at the lower fifth (two breves)	!
!!section: Patrem
!!!OMD: Patrem
1D	Pa-	0r	.	0r	.	0r	.
1E-i	.	.	.	.	.	.	.
=2	=2	=2	=2	=2	=2	=2	=2
1D	-trem	0r	.	1A	Pa-	0r	.
2r	.	.	.	1B-	.	.	.
[2D\	om-	.	.	.	.	.	.
=3	=3	=3	=3	=3	=3	=3	=3
2D\]	.	0r	.	1A	-trem	0r	.
2C/	.	.	.	.	.	.	.
2D\	-ni-	.	.	2A/	om-	.	.
2BB-/	-po-	.	.	2G/	-ni-	.	.
=4	=4	=4	=4	=4	=4	=4	=4
1AA	-ten-	0r	.	2G/	-po-	1a	Pa-
.	.	.	.	2F#i/	-ten-	.	.
1GG	-tem	.	.	1G	-tem	1b-	.
=5	=5	=5	=5	=5	=5	=5	=5
2r	.	0r	.	1d	fac-	1a	-trem
1F	fac-	.	.	.	.	.	.
.	.	.	.	2c\	-to-	2a/	om-
2G\	.	.	.	2B-\	.	2g/	-ni-
=6	=6	=6	=6	=6	=6	=6	=6
1D	-to-	1d	Pa-	1A	-rem	2g/	-po-
.	.	.	.	.	.	2f#i/	-ten-
1C	-rem	1e-	.	2r	.	1g	-tem
.	.	.	.	2c\	ce-	.	.
=7	=7	=7	=7	=7	=7	=7	=7
2.BB-/	ce-	1d	-trem	2F/	.	1r	.
.	.	.	.	[1.f	-li	.	.
4C/	.	.	.	.	.	.	.
4D\	.	2d\	om-	.	.	1a	fac-
4E\	.	.	.	.	.	.	.
2F\	.	2c\	-ni-	.	.	.	.
=8	=8	=8	=8	=8	=8	=8	=8
1G	-li	2c\	-po-	2f\]	.	1b-	-to-
.	.	2B-\	-ten-	2e\	et	.	.
[1F	et	1c	-tem	2.f\	ter-	1a	-rem
.	.	.	.	4e\	.	.	.
=9	=9	=9	=9	=9	=9	=9	=9
2F\]	.	1r	.	4d\	.	2a/	ce-
.	.	.	.	4c\	.	.	.
2G\	.	.	.	2B-\	.	2g/	-li
1D	ter-	1d	fac-	1A	-re,	2g/	et
.	.	.	.	.	.	2f#i/	ter-
=10	=10	=10	=10	=10	=10	=10	=10
1C	-re,	1e-	-to-	2r	.	[0g	-re,
.	.	.	.	4G/	vi-	.	.
.	.	.	.	4A/	.	.	.
2.GG/	vi-	1d	-rem	4B-\	.	.	.
.	.	.	.	4c\	.	.	.
.	.	.	.	2d\	.	.	.
4AA/	-si-	.	.	.	.	.	.
=11	=11	=11	=11	=11	=11	=11	=11
2BB-/	-bi-	2d\	ce-	2D/	-si-	1g]	.
2C/	-li-	2c\	-li	1G	-bi-	.	.
1D	-um	2c\	et	.	.	1r	.
.	.	2Bni\	ter-	2F/	-li-	.	.
=12	=12	=12	=12	=12	=12	=12	=12
0C	om-	[0c	-re,	1G	-um	2.e/	vi-
.	.	.	.	.	.	4f/	-si-
.	.	.	.	1E	om-	2g/	-bi-
.	.	.	.	.	.	2g/	-li-
=13	=13	=13	=13	=13	=13	=13	=13
1FF	.	1c]	.	2.F/	.	1a	-um
.	.	.	.	4G/	.	.	.
2F\	.	1r	.	4A/	.	2r	.
.	.	.	.	4B-\	.	.	.
2E\	-ni-	.	.	2c\	-ni-	[2g/	om-
=14	=14	=14	=14	=14	=14	=14	=14
1D	-um	2.A/	vi-	1d	-um	2g/]	.
.	.	.	.	.	.	2f/	-ni-
.	.	4B-\	-si-	.	.	.	.
1r	.	2c\	-bi-	1A	et	1e	-um
.	.	2c\	-li-	.	.	.	.
=15	=15	=15	=15	=15	=15	=15	=15
1GG	et	1d	-um	1B-	in-	1d	.
2D\	in-	2r	.	[1A	-vi-	1r	.
[2F\	-vi-	[2c\	om-	.	.	.	.
=16	=16	=16	=16	=16	=16	=16	=16
2F\]	.	2c\]	.	2A/]	.	1r	.
2G\	.	2B-\	-ni-	2G/	-si-	.	.
1D	-si-	1A	-um	2G/	-bi-	1a	et
.	.	.	.	2F#i/	-li-	.	.
=17	=17	=17	=17	=17	=17	=17	=17
2GG/	-bi-	1G	.	1G	-um.	1b-	.
1G	.	.	.	.	.	.	.
.	.	1r	.	1d	.	1a	in-
2F\	.	.	.	.	.	.	.
=18	=18	=18	=18	=18	=18	=18	=18
2.B-\	.	1r	.	2.d\	Et	2f/	-vi-
.	.	.	.	.	.	2g/	-si-
8A\L	.	.	.	4e\	.	.	.
8G\J	.	.	.	.	.	.	.
2F\	.	1d	et	2f\	in	2a/	-bi-
2G\	.	.	.	2d\	.	2b-\	-li-
=19	=19	=19	=19	=19	=19	=19	=19
1C	.	1e-	.	2r	.	4cc\	-um.
.	.	.	.	.	.	4b-\	.
.	.	.	.	2c\	u-	4a/	.
.	.	.	.	.	.	4g/	.
1D	-li-	1d	in-	1A	-num	1f	.
=20	=20	=20	=20	=20	=20	=20	=20
2G\	-um.	2B-\	-vi-	1r	.	2r	.
2F\	.	2c\	-si-	.	.	1a	et
1r	.	2d\	-bi-	2D/	Do-	.	.
.	.	2e-\	-li-	[2G/	.	2g/	.
=21	=21	=21	=21	=21	=21	=21	=21
1D	Et	4f\	-um.	2G/]	.	1a	in-
.	.	4e-\	.	.	.	.	.
.	.	4d\	.	2F#i/	-mi-	.	.
.	.	4c\	.	.	.	.	.
1r	.	1B-	.	1G	-num,	4d/	-vi-
.	.	.	.	.	.	4e/	.
.	.	.	.	.	.	4f/	.
.	.	.	.	.	.	4g/	.
=22	=22	=22	=22	=22	=22	=22	=22
2F\	in	2r	.	1r	.	2a/	-si-
2G\	u-	1d	et	.	.	2.b-\	-bi-
1E-	.	.	.	1G	Je-	.	.
.	.	.	.	.	.	4g/	.
.	.	2c\	.	.	.	[2g/	.
=23	=23	=23	=23	=23	=23	=23	=23
1D	-num	1d	in-	1A	-sum	2g/]	.
.	.	.	.	.	.	2f#i/	-li-
2r	.	4G/	-vi-	2B-\	Chri-	1g	-um.
.	.	4A/	.	.	.	.	.
2E-i\	Do-	4B-\	.	2G/	.	.	.
.	.	4c\	.	.	.	.	.
=24	=24	=24	=24	=24	=24	=24	=24
2D\	.	2d\	-si-	4A/	.	0r	.
.	.	.	.	4B-\	.	.	.
2C/	.	2.e-\	-bi-	2c\	.	.	.
2G\	.	.	.	2B-\	.	.	.
.	.	4c\	.	.	.	.	.
4F\	.	[2c\	.	4A/	.	.	.
4E-i\	.	.	.	4G/	.	.	.
=25	=25	=25	=25	=25	=25	=25	=25
1D	-mi-	2c\]	.	1F	.	1r	.
.	.	2Bni\	-li-	.	.	.	.
1C	-num,	1c	-um.	2G/	-stum,	1g	Et
.	.	.	.	[2c\	Fi-	.	.
=26	=26	=26	=26	=26	=26	=26	=26
2.c\	Je-	0r	.	4c\]	.	2g/	in
.	.	.	.	4B-\	.	.	.
.	.	.	.	4A/	.	1a	u-
4B-\	.	.	.	4G/	.	.	.
4A\	.	.	.	2F/	.	.	.
4G\	.	.	.	.	.	.	.
2F\	-sum	.	.	2f\	.	2a/	-num
=27	=27	=27	=27	=27	=27	=27	=27
2.B-\	Chri-	1r	.	2.d\	.	2.g/	Do-
8A\L	.	.	.	4e\	.	4g/	-mi-
8G\J	.	.	.	.	.	.	.
2.F\	.	1c	Et	1f	.	1a	-num,
4G\	.	.	.	.	.	.	.
=28	=28	=28	=28	=28	=28	=28	=28
2A\	.	2c\	in	2f\	-li-	2r	.
2G\	.	1d	u-	2g\	-um	2b-\	Je-
2F\	.	.	.	1r	.	2a/	-sum
2D\	.	2d\	-num	.	.	2f/	Chri-
=29	=29	=29	=29	=29	=29	=29	=29
1E	-stum,	2.c\	Do-	1G	De-	1g	-stum,
.	.	4c\	-mi-	.	.	.	.
2.D\	Fi-	1d	-num,	[1A	.	2.f/	Fi-
4E\	.	.	.	.	.	4g/	.
=30	=30	=30	=30	=30	=30	=30	=30
2F\	.	2r	.	2A/]	.	4a/	-li-
.	.	.	.	.	.	4b-\	.
2C/	-li-	2e-\	Je-	1G	-i	1cc	-um
1G	-um	2d\	-sum	.	.	.	.
.	.	2B-\	Chri-	2d\	u-	[2b-\	De-
=31	=31	=31	=31	=31	=31	=31	=31
1F	De-	1c	-stum,	1f	-ni-	2b-\]	.
.	.	.	.	.	.	2a/	.
4BB-/	.	2.B-\	Fi-	2.f\	-ge-	1b-	-i
4C/	.	.	.	.	.	.	.
4D\	.	.	.	.	.	.	.
4E\	.	4c\	.	4e\	.	.	.
=32	=32	=32	=32	=32	=32	=32	=32
2F\	.	4d\	-li-	4d\	.	2r	.
.	.	4e-\	.	4c\	.	.	.
2D\	-i	1f	-um	2d\	.	1a	u-
2F\	u-	.	.	2c\	.	.	.
2G\	-ni-	[2e-\	De-	2B-\	.	2g/	-ni-
=33	=33	=33	=33	=33	=33	=33	=33
1F	-ge-	2e-\]	.	2c\	.	2a/	-ge-
.	.	2d\	.	2A/	-ni-	2a/	-ni-
1C	-ni-	1e-	-i	1c	-tum.	1g	-tum.
=34	=34	=34	=34	=34	=34	=34	=34
2D\	-tum.	2r	.	2A/	Et	1r	.
2BB-/	.	1d	u-	2B-\	ex	.	.
2r	.	.	.	1G	Pa-	2r	.
2C/	Et	2c\	-ni-	.	.	2e/	Et
=35	=35	=35	=35	=35	=35	=35	=35
2BB-/	ex	2d\	-ge-	1B-	-tre	2f/	ex
2GG/	Pa-	2d\	-ni-	.	.	2g/	Pa-
1AA	-tre	1c	-tum.	2A/	na-	1e	-tre
.	.	.	.	[2c\	.	.	.
=36	=36	=36	=36	=36	=36	=36	=36
1E	na-	1r	.	2c\]	.	1g	na-
.	.	.	.	2B-\	.	.	.
1F	.	2r	.	2A/	-tum,	1a	-tum,
.	.	2A/	Et	[2d\	an-	.	.
=37	=37	=37	=37	=37	=37	=37	=37
2G\	-tum,	2B-\	ex	2d\]	.	1r	.
2C/	an-	2c\	Pa-	2e-i\	.	.	.
2.D\	-te	1A	-tre	2d\	-te	1a	an-
.	.	.	.	2D/	om-	.	.
8C/L	.	.	.	.	.	.	.
8BB-/J	.	.	.	.	.	.	.
=38	=38	=38	=38	=38	=38	=38	=38
1AA	om-	1c	na-	2E/	-ni-	1a	-te
.	.	.	.	2F/	-a	.	.
1GG	-ni-	1d	-tum,	2G/	se-	1b-	om-
.	.	.	.	2B-\	.	.	.
=39	=39	=39	=39	=39	=39	=39	=39
2D\	-a	1r	.	2F/	.	2a/	-ni-
2E-i\	se-	.	.	2G/	-cu-	2g/	-a
1D	-cu-	1d	an-	1A	-la.	2g/	se-
.	.	.	.	.	.	2f#i/	-cu-
=40	=40	=40	=40	=40	=40	=40	=40
1GG	-la.	1d	-te	2G/	De-	1g	-la.
.	.	.	.	2B-\	-um	.	.
2r	.	1e-	om-	4c\	de	2g/	De-
.	.	.	.	4B-\	.	.	.
2C/	De-	.	.	4A/	.	2g/	-um
.	.	.	.	4G/	.	.	.
=41	=41	=41	=41	=41	=41	=41	=41
1F	-um	2d\	-ni-	2F/	De-	1a	de
.	.	2c\	-a	1A	-o,	.	.
1D	de	2c\	se-	.	.	1f	De-
.	.	2Bni\	-cu-	2F/	lu-	.	.
=42	=42	=42	=42	=42	=42	=42	=42
2.C/	De-	1c	-la.	1G	-men	1e	-o,
4D\	.	.	.	.	.	.	.
2E\	.	2c\	De-	2G/	de	1r	.
[2F\	.	2c\	-um	[2A/	lu-	.	.
=43	=43	=43	=43	=43	=43	=43	=43
2F\]	.	1d	de	2A/]	.	1r	.
2D\	.	.	.	2A/	-mi-	.	.
1E-	-o,	1B-	De-	1G	-ne,	2g/	lu-
.	.	.	.	.	.	2g/	-men
=44	=44	=44	=44	=44	=44	=44	=44
0r	.	1A	-o,	2.c\	De-	1a	de
.	.	.	.	4d\	.	.	.
.	.	1r	.	2e-i\	-um	2g/	lu-
.	.	.	.	[2d\	ve-	2f/	-mi-
=45	=45	=45	=45	=45	=45	=45	=45
1r	.	1r	.	2d\]	.	1e	-ne,
.	.	.	.	2c\	-rum	.	.
2F\	lu-	2c\	lu-	2A/	de	1r	.
2E\	.	2c\	-men	2G/	De-	.	.
=46	=46	=46	=46	=46	=46	=46	=46
1D	-men	1d	de	2A/	-o	1f	De-
.	.	.	.	2.a\	ve-	.	.
1r	.	2c\	lu-	.	.	2e/	-um
.	.	.	.	4g\	.	.	.
.	.	2B-\	-mi-	[2g\	.	[2d/	ve-
=47	=47	=47	=47	=47	=47	=47	=47
1r	.	1A	-ne,	2g\]	.	2d/]	.
.	.	.	.	2f#i\	.	2c/	.
[1G	Ge-	1r	.	1g	-ro.	1d	-rum
=48	=48	=48	=48	=48	=48	=48	=48
2G\]	.	1B-	De-	0r	.	2d/	de
2D\	-ni-	.	.	.	.	2d/	De-
2F\	-tum	2A/	-um	.	.	2c/	-o
2G\	non	[2G/	ve-	.	.	2B-/	ve-
=49	=49	=49	=49	=49	=49	=49	=49
1D	fac-	2G/]	.	1d	Ge-	1A	-ro.
.	.	2F/	.	.	.	.	.
2E-i\	-tum,	1G	-rum	2B-\	.	1r	.
2C/	con-	.	.	2c\	-ni-	.	.
=50	=50	=50	=50	=50	=50	=50	=50
2BB-/	-sub-	2G/	de	2d\	-tum	1r	.
2GG/	-stan-	2G/	De-	2B-\	non	.	.
2D\	-ti-	2F/	-o	2A/	fac-	2f/	Ge-
[2G\	-a-	2E-/	ve-	2G/	.	2g/	-ni-
=51	=51	=51	=51	=51	=51	=51	=51
2G\]	.	1D	-ro.	1d	-tum,	1a	-tum
2F\	-lem	.	.	.	.	.	.
2G\	Pa-	1r	.	2r	.	1b-	non
2GG/	-tri,	.	.	[2G/	con-	.	.
=52	=52	=52	=52	=52	=52	=52	=52
1D	per	1r	.	2G/]	.	1a	fac-
.	.	.	.	2F/	-sub-	.	.
1E-i	quem	2B-\	Ge-	1G	-stan-	1g	-tum,
.	.	2c\	-ni-	.	.	.	.
=53	=53	=53	=53	=53	=53	=53	=53
2D\	om-	1d	-tum	2A/	-ti-	2r	.
2BB-/	-ni-	.	.	2B-\	-a-	2g/	con-
2C/	-a	1e-	non	2G/	-lem	2g/	-sub-
[2C/	fac-	.	.	2c\	Pa-	2g/	-stan-
=54	=54	=54	=54	=54	=54	=54	=54
2C/]	.	1d	fac-	1.G	-tri,	2g/	-ti-
2BB-/	.	.	.	.	.	2g/	-a-
2.C/	.	1c	-tum,	.	.	1e	-lem
.	.	.	.	[2c\	per	.	.
4D\	.	.	.	.	.	.	.
=55	=55	=55	=55	=55	=55	=55	=55
2E\	.	2r	.	4c\]	.	1g	Pa-
.	.	.	.	4d\	.	.	.
2C/	-ta	2c\	con-	2e\	.	.	.
1F	sunt.	2c\	-sub-	2c\	quem	1a	-tri,
.	.	2c\	-stan-	2f\	om-	.	.
=56	=56	=56	=56	=56	=56	=56	=56
2C/	Qui	2c\	-ti-	2e\	.	2r	.
1F	.	2c\	-a-	2c\	-ni-	2a/	per
.	.	1A	-lem	1f	-a	2.cc\	quem
2F\	pro-	.	.	.	.	.	.
.	.	.	.	.	.	4b-\	om-
=57	=57	=57	=57	=57	=57	=57	=57
2F\	-pter	1c	Pa-	2r	.	2a/	-ni-
2E\	.	.	.	1g	fac-	2g/	-a
1D	nos	1d	-tri,	.	.	2a/	fac-
.	.	.	.	2f#i\	-ta	2a/	-ta
=58	=58	=58	=58	=58	=58	=58	=58
2GG/	ho-	2r	.	2.g\	sunt.	1g	sunt.
1BB-	.	2d\	per	.	.	.	.
.	.	.	.	8f\L	.	.	.
.	.	.	.	8e\J	.	.	.
.	.	2.f\	quem	2d\	.	2r	.
2BB-/	-mi-	.	.	[2B-\	Qui	2d/	Qui
.	.	4e-\	om-	.	.	.	.
=59	=59	=59	=59	=59	=59	=59	=59
2BB-/	-nes,	2d\	-ni-	2B-\]	.	2f/	pro-
2AA/	et	2c\	-a	2c\	pro-	1a	-pter
1D	pro-	2d\	fac-	2F/	-pter	.	.
.	.	2d\	-ta	[2A/	nos	2f/	nos
=60	=60	=60	=60	=60	=60	=60	=60
1AA	.	1c	sunt.	2A/]	.	2e/	ho-
.	.	.	.	2A/	ho-	2e/	-mi-
2D\	-pter	2r	.	2A/	-mi-	1d	-nes,
[2G\	no-	2G/	Qui	2B-\	.	.	.
=61	=61	=61	=61	=61	=61	=61	=61
4G\]	.	2B-\	pro-	1d	-nes,	2r	.
4F\	.	.	.	.	.	.	.
2D\	.	1d	-pter	.	.	1f	et
2BB-/	-stram	.	.	2r	.	.	.
2GG/	sa-	2B-\	nos	[2d\	et	2g/	pro-
=62	=62	=62	=62	=62	=62	=62	=62
1D	-lu-	2A/	ho-	2d\]	.	2g/	-pter
.	.	2A/	-mi-	2d\	pro-	2f#i/	no-
2GG/	.	1G	-nes,	2d\	-pter	2.g/	-stram
2C/	.	.	.	2e\	no-	.	.
.	.	.	.	.	.	4f/	.
=63	=63	=63	=63	=63	=63	=63	=63
2BB-/	.	2r	.	2f\	-stram	2d/	.
2GG/	.	1B-	et	2g\	sa-	2d/	sa-
2D\	.	.	.	2d\	-lu-	2f/	-lu-
2C/	.	2c\	pro-	[2g\	.	2e/	.
=64	=64	=64	=64	=64	=64	=64	=64
1G	.	2c\	-pter	2g\]	.	1d	-tem
.	.	2Bni\	no-	2g\	-tem	.	.
1C	-tem	2.c\	-stram	2r	.	2r	.
.	.	.	.	[2e-\	de-	2g/	de-
.	.	4B-\	.	.	.	.	.
=65	=65	=65	=65	=65	=65	=65	=65
0r	.	2G/	.	2e-\]	.	2.b-\	-scen-
.	.	2G/	sa-	1d	.	.	.
.	.	.	.	.	.	4a/	.
.	.	2B-\	-lu-	.	.	2g/	.
.	.	2A/	.	2c\	.	[2cc\	.
=66	=66	=66	=66	=66	=66	=66	=66
1r	.	1G	-tem	1d	-scen-	2cc\]	.
.	.	.	.	.	.	2b-\	.
[1C	de-	2r	.	[1c	-dit	2.cc\	.
.	.	2c\	de-	.	.	.	.
.	.	.	.	.	.	4b-\	.
=67	=67	=67	=67	=67	=67	=67	=67
1C]	.	2.e-\	-scen-	1c]	.	1g	-dit
.	.	4d\	.	.	.	.	.
1F	-scen-	2c\	.	2A/	de-	2r	.
.	.	[2f\	.	2c\	.	[2a/	de-
=68	=68	=68	=68	=68	=68	=68	=68
1r	.	2f\]	.	2F/	-ce-	2a/]	.
.	.	2e-\	.	2c\	.	2g/	.
1D	-de-	2.f\	.	1d	-lis,	2a/	-ce-
.	.	.	.	.	.	4g/	.
.	.	4e-\	.	.	.	4f/	.
=69	=69	=69	=69	=69	=69	=69	=69
1A	.	1c	-dit	1r	.	1e	.
2.B-\	-scen-	2r	.	[1f	de-	4d/	.
.	.	.	.	.	.	4e/	.
.	.	[2d\	de-	.	.	4f/	.
8A\L	.	.	.	.	.	4g/	.
8G\J	.	.	.	.	.	.	.
=70	=70	=70	=70	=70	=70	=70	=70
1F	-dit	2d\]	.	1f]	.	4a/	.
.	.	.	.	.	.	4b-\	.
.	.	2c\	.	.	.	2a/	.
2.BB-/	de-	2d\	-ce-	2f\	-ce-	2b-\	.
.	.	4c\	.	[2d\l	-lis.	[2g/	.
4C/	.	4B-\	.	.	.	.	.
=71	=71	=71	=71	=71	=71	=71	=71
1D	-ce-	1A	.	0d]	.	2g/]	.
.	.	.	.	.	.	2f#i/	.
1GGl	-lis.	1Gl	-lis.	.	.	1gl	-lis.
!!LO:LB:i:g=z
=72||	=72||	=72||	=72||	=72||	=72||	=72||	=72||
*>B	*>B	*>B	*>B	*>B	*>B	*>B	*>B
*clefF4	*	*clefGv2	*	*clefGv2	*	*clefG2	*
*k[b-]	*	*k[b-e-]	*	*k[b-]	*	*k[b-]	*
*M2/1	*	*M2/1	*	*M2/1	*	*M2/1	*
*met(C)	*	*met(C)	*	*met(C)	*	*met(C)	*
!!section: Et incarnatus est
!!!OMD: Et incarnatus est
!	!	!	!	!	!	!LO:TX:X=-40:Z=8:t=Canon at the lower fifth (three breves)	!
1r	.	0r	.	0r	.	1e	Et
1D	Et	.	.	.	.	1f	.
=73.	=73	=73.	=73	=73.	=73	=73.	=73
1.E	in-	0r	.	0r	.	1.g	in-
2F\	-car-	.	.	.	.	2g/	-car-
=74.	=74	=74.	=74	=74.	=74	=74.	=74
1G	-na-	0r	.	1B-	Et	1g	-na-
1E	-tus	.	.	1c	.	1g	-tus
=75	=75	=75	=75	=75	=75	=75	=75
1D	est	1A	Et	1.d	in-	0f	est
1BB-	.	1B-	.	.	.	.	.
.	.	.	.	2d\	-car-	.	.
=76.	=76	=76.	=76	=76.	=76	=76.	=76
0AA	de	1.c	in-	1c	-na-	1a	de
.	.	.	.	1A	.	2g/	Spi-
.	.	2c\	-car-	.	.	2f/	-ri-
=77.	=77	=77.	=77	=77.	=77	=77.	=77
1.C	Spi-	1c	-na-	0G	-tus	0e	-tu
.	.	1c	-tus	.	.	.	.
4BB-/	.	.	.	.	.	.	.
4AA/	.	.	.	.	.	.	.
=78	=78	=78	=78	=78	=78	=78	=78
2GG/	-ri-	0B-	est	0d	est	1r	.
2.BB-/	-tu	.	.	.	.	.	.
.	.	.	.	.	.	[1f	sanc-
4C/	.	.	.	.	.	.	.
[2D\	sanc-	.	.	.	.	.	.
=79.	=79	=79.	=79	=79.	=79	=79.	=79
2D\]	.	1d	de	0r	.	1f]	.
2F\	.	.	.	.	.	.	.
1E	.	2c\	Spi-	.	.	1g	.
.	.	2B-\	-ri-	.	.	.	.
=80.	=80	=80.	=80	=80.	=80	=80.	=80
0F	-to,	0A	-tu	1.c	de	0a	-to,
.	.	.	.	2d\	.	.	.
=81	=81	=81	=81	=81	=81	=81	=81
1C	ex	1r	.	1e-i	Spi-	1.g	ex
1E-	.	[1B-	sanc-	1e-i	-ri-	.	.
.	.	.	.	.	.	2a/	.
=82.	=82	=82.	=82	=82.	=82	=82.	=82
1G	Ma-	1B-]	.	1d	-tu	1b-	Ma-
1F	-ri-	1c	.	[1f	sanc-	[1a	-ri-
=83.	=83	=83.	=83	=83.	=83	=83.	=83
0D	-a	0d	-to,	1f]	.	2a/]	.
.	.	.	.	.	.	2g/	.
.	.	.	.	2.F/	.	2a/	-a
.	.	.	.	.	.	2b-\	.
.	.	.	.	4G/	.	.	.
=84	=84	=84	=84	=84	=84	=84	=84
1.AA	Vir-	1.c	ex	2A/	.	1.cc	Vir-
.	.	.	.	2B-\	.	.	.
.	.	.	.	[1c	-to,	.	.
2BB-/	.	2d\	.	.	.	4b-\	.
.	.	.	.	.	.	4a/	.
=85.	=85	=85.	=85	=85.	=85	=85.	=85
1C	.	1e-	Ma-	1c]	.	1g	-gi-
1D	.	[1d	-ri-	1A	ex	1f	-ne,
=86.	=86	=86.	=86	=86.	=86	=86.	=86
0G	.	2d\]	.	2B-\	Ma-	0r	.
.	.	2c\	.	2A/	.	.	.
.	.	2d\	-a	1B-	-ri-	.	.
.	.	2e-\	.	.	.	.	.
=87	=87	=87	=87	=87	=87	=87	=87
[0F	.	1.f	Vir-	0c	-a	[0a	et
.	.	4e-\	.	.	.	.	.
.	.	4d\	.	.	.	.	.
=88.	=88	=88.	=88	=88.	=88	=88.	=88
1F]	.	1c	-gi-	1.f	Vir-	1a]	.
1BB-	.	1B-	-ne,	.	.	1b-	.
.	.	.	.	4e\	.	.	.
.	.	.	.	4d\	.	.	.
=89.	=89	=89.	=89	=89.	=89	=89.	=89
1F	.	0r	.	2c\	.	1a	ho-
.	.	.	.	2.d\	.	.	.
1E	.	.	.	.	.	[1g	.
.	.	.	.	4c\	.	.	.
.	.	.	.	[2c\	.	.	.
=90	=90	=90	=90	=90	=90	=90	=90
0D	-gi-	[0d	et	4c\]	.	2g/]	.
.	.	.	.	4B-\	.	.	.
.	.	.	.	4A/	.	4f#i/	.
.	.	.	.	4G/	.	4e/	.
.	.	.	.	1A	-gi-	1f#i	.
=91.	=91	=91.	=91	=91.	=91	=91.	=91
1GG	-ne,	1d]	.	0G	-ne,	0g	.
1C	.	1e-	.	.	.	.	.
=92.	=92	=92.	=92	=92.	=92	=92.	=92
2r	.	1d	ho-	1r	.	1f	.
2BB-/	et	.	.	.	.	.	.
1C	ho-	[1c	.	[1g	et	1e	.
=93	=93	=93	=93	=93	=93	=93	=93
1GG	-mo	2c\]	.	1g]	.	1d	-mo
.	.	4Bni\	.	.	.	.	.
.	.	4A/	.	.	.	.	.
1G	fac-	1Bni	-mo	1d	ho-	2r	.
.	.	.	.	.	.	2g/	fac-
=94.	=94	=94.	=94	=94.	=94	=94.	=94
2F\	.	0c	fac-	1f	-mo	2a/	.
4E\	.	.	.	.	.	2.cc\	.
4D\	.	.	.	.	.	.	.
2C/	.	.	.	2e\	fac-	.	.
.	.	.	.	.	.	4b-\	.
2F\	.	.	.	2f\	-tus	[2a/	.
=95.	=95	=95.	=95	=95.	=95	=95.	=95
1G	.	1B-	.	[0dl	est.	2a/]	.
.	.	.	.	.	.	1g	.
1D	-tus	1A	-tus	.	.	.	.
.	.	.	.	.	.	2f#i/	-tus
=96	=96	=96	=96	=96	=96	=96	=96
0GGl	est.	0Gl	est.	0d]	.	0gl	est.
!!LO:LB:i:g=z
=97||	=97||	=97||	=97||	=97||	=97||	=97||	=97||
*>C	*>C	*>C	*>C	*>C	*>C	*>C	*>C
*clefF4	*	*clefGv2	*	*clefGv2	*	*clefG2	*
*k[b-]	*	*k[b-e-]	*	*k[b-]	*	*k[b-]	*
*M2/1	*	*M2/1	*	*M2/1	*	*M2/1	*
*met(O2)	*	*met(O2)	*	*met(O2)	*	*met(O2)	*
!!section: Crucifixus
!!!OMD: Crucifixus
!	!	!	!	!	!	!LO:TX:X=-40:Z=8:t=Canon at the lower fifth (three breves)	!
1BB-	Cru-	0r	.	1r	.	0r	.
1C	-ci-	.	.	1c	Cru-	.	.
=98.	=98	=98.	=98	=98.	=98	=98.	=98
1BB-	-fi-	0r	.	1d	-ci-	0r	.
1AA	-xus	.	.	1c	-fi-	.	.
=99.	=99	=99.	=99	=99.	=99	=99.	=99
2r	.	0r	.	1A	-xus	0r	.
1D	et-	.	.	.	.	.	.
.	.	.	.	2B-\	et-	.	.
2BB-/	-i-	.	.	2G/	-i-	.	.
=100	=100	=100	=100	=100	=100	=100	=100
2C/	-am	0r	.	2A/	-am	0r	.
2D\	pro	.	.	2B-\	pro	.	.
1E-i	no-	.	.	1c	no-	.	.
=101.	=101	=101.	=101	=101.	=101	=101.	=101
2D\	-bis,	0r	.	1d	-bis,	0r	.
1G	sub	.	.	.	.	.	.
.	.	.	.	1A	sub	.	.
2F\	Pon-	.	.	.	.	.	.
=102.	=102	=102.	=102	=102.	=102	=102.	=102
2G\	-ti-	0r	.	1B-	.	0r	.
1D	-o	.	.	.	.	.	.
.	.	.	.	2A/	Pon-	.	.
4C/	Pi-	.	.	2G/	-ti-	.	.
4BB-/	.	.	.	.	.	.	.
=103	=103	=103	=103	=103	=103	=103	=103
1AA	-la-	0r	.	2G/	-o	0r	.
.	.	.	.	2F#i/	Pi-	.	.
1GG	-to	.	.	1G	-la-	.	.
=104.	=104	=104.	=104	=104.	=104	=104.	=104
1r	.	0r	.	1B-	-to	0r	.
1A	pas-	.	.	2c\	pas-	.	.
.	.	.	.	4B-\	-sus	.	.
.	.	.	.	4A/	.	.	.
=105.	=105	=105.	=105	=105.	=105	=105.	=105
1B-	-sus	0r	.	2G/	et	0r	.
.	.	.	.	2d\	se-	.	.
2A\	et	.	.	2c\	-pul-	.	.
2G\	se-	.	.	2B-\	.	.	.
=106	=106	=106	=106	=106	=106	=106	=106
2G\	-pul-	0r	.	1A	-tus	0r	.
2F#i\	-tus	.	.	.	.	.	.
1G	est.	.	.	1G	est.	.	.
=107.	=107	=107.	=107	=107.	=107	=107.	=107
2E\	Et	0r	.	2r	.	0r	.
1F	re-	.	.	2c\	Et	.	.
.	.	.	.	2d\	re-	.	.
2G\	.	.	.	2e\	-sur-	.	.
=108.	=108	=108.	=108	=108.	=108	=108.	=108
2A\	-sur-	0r	.	1f	-re-	0r	.
2.B-\	-re-	.	.	.	.	.	.
.	.	.	.	1d	-xit	.	.
4A\	.	.	.	.	.	.	.
2G\	.	.	.	.	.	.	.
=109	=109	=109	=109	=109	=109	=109	=109
2F\	.	0r	.	2r	.	0r	.
1G	-xit	.	.	2d\	ter-	.	.
.	.	.	.	2e\	-ti-	.	.
2D\	ter-	.	.	2f\	-a	.	.
=110.	=110	=110.	=110	=110.	=110	=110.	=110
1E-i	-ti-	0r	.	1g	di-	0r	.
4BB-/	-a	.	.	1f	-e,	.	.
4C/	.	.	.	.	.	.	.
4D\	.	.	.	.	.	.	.
4E\	.	.	.	.	.	.	.
=111.	=111	=111.	=111	=111.	=111	=111.	=111
2F\	.	0r	.	2r	.	0r	.
2.G\	di-	.	.	2.B-\	se-	.	.
4F\	.	.	.	4c\	.	.	.
[2D\	-e,	.	.	4d\	.	.	.
.	.	.	.	4e\	.	.	.
=112	=112	=112	=112	=112	=112	=112	=112
2D\]	.	0r	.	2f\	-cun-	0r	.
2.GG/	se-	.	.	2g\	-dum	.	.
.	.	.	.	2r	.	.	.
4AA/	.	.	.	.	.	.	.
4BB-/	.	.	.	[2G/	Scrip-	.	.
4C/	.	.	.	.	.	.	.
=113.	=113	=113.	=113	=113.	=113	=113.	=113
2BB-/	-cun-	0r	.	4G/]	.	0r	.
.	.	.	.	4A/	.	.	.
2GG/	-dum	.	.	4B-\	.	.	.
.	.	.	.	4c\	.	.	.
2G\	Scrip-	.	.	4d\	.	.	.
.	.	.	.	4e\	.	.	.
[2F\	-tu-	.	.	4f\	.	.	.
.	.	.	.	4g\	.	.	.
=114.	=114	=114.	=114	=114.	=114	=114.	=114
2F\]	.	0r	.	2a\	.	0r	.
2G\	.	.	.	1g	-tu-	.	.
1A	-ras,	.	.	.	.	.	.
.	.	.	.	2f#i\	.	.	.
=115	=115	=115	=115	=115	=115	=115	=115
1.G	Et	0r	.	1g	-ras,	1.d	Et
.	.	.	.	2.G/	Et	.	.
4F\	a-	.	.	.	.	2e/	a-
4E\	.	.	.	4A/	.	.	.
=116.	=116	=116.	=116	=116.	=116	=116.	=116
1D	-scen-	0r	.	1B-	a-	1f	-scen-
1C	.	.	.	1e-i	-scen-	1g	.
=117.	=117	=117.	=117	=117.	=117	=117.	=117
1F	-dit	0r	.	0d	-dit	1a	-dit
1G	in	.	.	.	.	1b-	in
=118	=118	=118	=118	=118	=118	=118	=118
2.C/	ce-	1.G	Et	1c	in	1.cc	ce-
4D\	.	.	.	.	.	.	.
2E\	.	.	.	2.c\	ce-	.	.
2F\	.	2A/	a-	.	.	4b-\	.
.	.	.	.	4d\	.	4a/	.
=119.	=119	=119.	=119	=119.	=119	=119.	=119
2G\	-lum,	1B-	-scen-	2e-i\	-lum,	2g/	-lum,
2B-\	se-	.	.	2d\	se-	2f/	se-
2A\	-det	1c	.	1c	-det	[1a	-det
[2F\	ad	.	.	.	.	.	.
=120.	=120	=120.	=120	=120.	=120	=120.	=120
2F\]	.	1d	-dit	1A	ad	2a/]	.
4E\	dex-	.	.	.	.	4g/	ad
4D\	.	.	.	.	.	4f/	.
1C	-te-	1e-	in	1c	.	2g/	dex-
.	.	.	.	.	.	4f/	-te-
.	.	.	.	.	.	4e/	.
=121	=121	=121	=121	=121	=121	=121	=121
1BB-	-ram	1.f	ce-	2.F/	dex-	2.d/	-ram
.	.	.	.	4G/	.	4e/	.
2r	.	.	.	4A/	.	4f/	.
.	.	.	.	4B-\	.	4g/	.
[2F\	Pa-	4e-\	.	2c\	-te-	[2a/	Pa-
.	.	4d\	.	.	.	.	.
=122.	=122	=122.	=122	=122.	=122	=122.	=122
2F\]	.	2c\	-lum,	2A/	-ram	2a/]	.
2G\	.	2B-\	se-	2B-\	.	1g	.
1D	.	[1d	-det	1A	Pa-	.	.
.	.	.	.	.	.	2f#i/	.
=123.	=123	=123.	=123	=123.	=123	=123.	=123
1GG	-tris,	2d\]	.	1G	-tris,	0g	-tris,
.	.	4c\	ad	.	.	.	.
.	.	4B-\	.	.	.	.	.
2r	.	2c\	dex-	1r	.	.	.
[2C/	Pa-	4B-\	-te-	.	.	.	.
.	.	4A/	.	.	.	.	.
=124	=124	=124	=124	=124	=124	=124	=124
4C/]	.	2.G/	-ram	2.c\	Pa-	0r	.
4D\	.	.	.	.	.	.	.
4E\	.	.	.	.	.	.	.
4F\	.	4A/	.	4d\	.	.	.
4G\	.	4B-\	.	4e\	.	.	.
4A\	.	4c\	.	4f\	.	.	.
[2B-\	.	[2d\	Pa-	[2g\	.	.	.
=125.	=125	=125.	=125	=125.	=125	=125.	=125
2B-\]	.	2d\]	.	2g\]	.	0r	.
2A\	.	1c	.	1f	.	.	.
1G	.	.	.	.	.	.	.
.	.	2B-\	.	2e\	.	.	.
=126.	=126	=126.	=126	=126.	=126	=126.	=126
0F	-tris.	0c	-tris,	1f	-tris.	1a	Et
.	.	.	.	2r	.	2a/	i-
.	.	.	.	[2c\	Et	2a/	-te-
=127	=127	=127	=127	=127	=127	=127	=127
1.A	Et	0r	.	2c\]	.	1a	-rum
.	.	.	.	1e	i-	.	.
.	.	.	.	.	.	1cc	ven-
4G\	.	.	.	[2f\	-te-	.	.
4F\	.	.	.	.	.	.	.
=128.	=128	=128.	=128	=128.	=128	=128.	=128
1G	i-	0r	.	2f\]	.	1.b-	-tu-
.	.	.	.	1d	-rum	.	.
1E	-te-	.	.	.	.	.	.
.	.	.	.	2c\	ven-	4a/	-rus
.	.	.	.	.	.	4g/	.
=129.	=129	=129.	=129	=129.	=129	=129.	=129
1D	-rum	1d	Et	2d\	-tu-	1f	est
.	.	.	.	2A/	-rus	.	.
2r	.	2d\	i-	1B-	est	1r	.
[2BB-/	ven-	2d\	-te-	.	.	.	.
=130	=130	=130	=130	=130	=130	=130	=130
2BB-/]	.	1d	-rum	2r	.	1b-	cum
4AA/	-tu-	.	.	2F/	cum	.	.
4GG/	.	.	.	.	.	.	.
1FF	-rus	1f	ven-	1c	.	2a/	glo-
.	.	.	.	.	.	2a/	-ri-
=131.	=131	=131.	=131	=131.	=131	=131.	=131
0C	est	1.e-	-tu-	1.c	glo-	1.g	-a
.	.	4d\	-rus	4d\	-ri-	4f/	.
.	.	4c\	.	4e\	.	4e/	.
=132.	=132	=132.	=132	=132.	=132	=132.	=132
0r	.	1B-	est	2f\	-a	2d/	.
.	.	.	.	1d	ju-	1f	ju-
.	.	1r	.	.	.	.	.
.	.	.	.	[2B-\	-di-	4e/	-di-
.	.	.	.	.	.	4d/	.
=133	=133	=133	=133	=133	=133	=133	=133
1r	.	1e-	cum	2B-\]	.	1c	-ca-
.	.	.	.	2A/	-ca-	.	.
1BB-	cum	2d\	glo-	1B-	-re	1B-	-re
.	.	2d\	-ri-	.	.	.	.
=134.	=134	=134.	=134	=134.	=134	=134.	=134
2F\	glo-	1.c	-a	2r	.	0r	.
4E-i\	.	.	.	2c\	vi-	.	.
4D\	.	.	.	.	.	.	.
2.C/	.	.	.	[1g	-vos	.	.
.	.	4B-\	.	.	.	.	.
4D\	.	4A/	.	.	.	.	.
=135.	=135	=135.	=135	=135.	=135	=135.	=135
2E-i\	.	2G/	.	2g\]	.	1r	.
4D\	-ri-	1B-	ju-	4f\	.	.	.
4C/	.	.	.	4e\	.	.	.
1BB-	-a	.	.	[1f	.	1d	vi-
.	.	4A/	-di-	.	.	.	.
.	.	4G/	.	.	.	.	.
=136	=136	=136	=136	=136	=136	=136	=136
0r	.	1F	-ca-	2f\]	.	1f	.
.	.	.	.	1d	.	.	.
.	.	1E-	-re	.	.	1g	.
.	.	.	.	2c\	et	.	.
=137.	=137	=137.	=137	=137.	=137	=137.	=137
1D	ju-	0r	.	2f\	mor-	1.a	-vos
.	.	.	.	4e\	.	.	.
.	.	.	.	4d\	.	.	.
1F	-di-	.	.	2c\	.	.	.
.	.	.	.	[2d\	.	2a/	et
=138.	=138	=138.	=138	=138.	=138	=138.	=138
1G	-ca-	1r	.	4d\]	.	1d	mor-
.	.	.	.	4c\	.	.	.
.	.	.	.	2B-\	.	.	.
1C	-re	1G	vi-	2c\	.	2e/	.
.	.	.	.	4B-\	.	[2g/	.
.	.	.	.	4A/	.	.	.
=139	=139	=139	=139	=139	=139	=139	=139
0r	.	1B-	.	2G/	.	4g/]	.
.	.	.	.	.	.	4f/	.
.	.	.	.	2B-\	-tu-	2d/	.
.	.	1c	.	1A	-os,	1e	-tu-
=140.	=140	=140.	=140	=140.	=140	=140.	=140
2.BB-/	vi-	1.d	-vos	2B-\	cu-	0d	-os,
.	.	.	.	4A/	.	.	.
4C/	.	.	.	4G/	.	.	.
2D\	-vos	.	.	2F/	-jus	.	.
2BB-/	et	2d\	et	[2G/	re-	.	.
=141.	=141	=141.	=141	=141.	=141	=141.	=141
2C/	mor-	1G	mor-	2G/]	.	0r	.
2E-i\	.	.	.	2c\	.	.	.
2D\	.	2A/	.	2d\	.	.	.
2C/	.	[2c\	.	2e\	.	.	.
=142	=142	=142	=142	=142	=142	=142	=142
2F\	.	4c\]	.	2f\	.	0r	.
.	.	4B-\	.	.	.	.	.
2E\	.	2G/	.	1g	.	.	.
1D	-tu-	1A	-tu-	.	.	.	.
.	.	.	.	2f#i\	.	.	.
=143.	=143	=143.	=143	=143.	=143	=143.	=143
1GG	-os,	0G	-os,	0g	-gni	1.d	cu-
2r	.	.	.	.	.	.	.
[2G\	non	.	.	.	.	2d/	-jus
=144.	=144	=144.	=144	=144.	=144	=144.	=144
2G\]	.	0r	.	0r	.	1e	re-
1E	e-	.	.	.	.	.	.
.	.	.	.	.	.	1e	-gni
[2C/	-rit	.	.	.	.	.	.
=145	=145	=145	=145	=145	=145	=145	=145
2C/]	.	0r	.	2r	.	1d	non
2BB-/	.	.	.	1g	non	.	.
1C	fi-	.	.	.	.	1g	.
.	.	.	.	[2e\	e-	.	.
=146.	=146	=146.	=146	=146.	=146	=146.	=146
0GG	-nis.	1.G	cu-	2e\]	.	2g/	e-
.	.	.	.	1c	-rit	4f/	-rit
.	.	.	.	.	.	4e/	.
.	.	.	.	.	.	1d	fi-
.	.	2G/	-jus	2Bni\	fi-	.	.
=147.	=147	=147.	=147	=147.	=147	=147.	=147
0r	.	1A	re-	1c	-nis.	0c	-nis.
.	.	1A	-gni	1r	.	.	.
=148	=148	=148	=148	=148	=148	=148	=148
1C	Et	1G	non	1.c	Et	0r	.
1C	in	1c	.	.	.	.	.
.	.	.	.	2d\	in	.	.
=149.	=149	=149.	=149	=149.	=149	=149.	=149
1.C	Spi-	2c\	e-	1e	Spi-	1g	Et
.	.	4B-\	-rit	.	.	.	.
.	.	4A/	.	.	.	.	.
.	.	1G	fi-	1e	-ri-	1g	in
2C/	-ri-	.	.	.	.	.	.
=150.	=150	=150.	=150	=150.	=150	=150.	=150
1FF	-tum	0F	-nis.	1f	-tum	1.a	Spi-
1F	sanc-	.	.	1f	sanc-	.	.
.	.	.	.	.	.	2a/	-ri-
=151	=151	=151	=151	=151	=151	=151	=151
1G	-tum	0r	.	1.d	.	1b-	-tum
2G\	Do-	.	.	.	.	1b-	sanc-
2G\	-mi-	.	.	2e\	.	.	.
=152.	=152	=152.	=152	=152.	=152	=152.	=152
2F\	-num	1c	Et	2f\	.	2a/	-tum
2E\	.	.	.	2g\	-tum	2g/	.
1C	et	1c	in	1e	Do-	[1cc	Do-
=153.	=153	=153.	=153	=153.	=153	=153.	=153
1G	vi-	1.d	Spi-	1d	-mi-	2cc\]	.
.	.	.	.	.	.	4bni\	.
.	.	.	.	.	.	4a/	.
2G\	-vi-	.	.	[1g	-num	2bni\	.
2G\	-fi-	2d\	-ri-	.	.	2bni\	-mi-
=154	=154	=154	=154	=154	=154	=154	=154
1C	-can-	1e-	-tum	1g]	.	1cc	-num
1C	-tem,	1e-	sanc-	2r	.	1g	et
.	.	.	.	2c\	et	.	.
=155.	=155	=155.	=155	=155.	=155	=155.	=155
0F	qui	2d\	-tum	1A	vi-	1a	vi-
.	.	2c\	.	.	.	.	.
.	.	[1f	Do-	1c	-vi-	1a	-vi-
=156.	=156	=156.	=156	=156.	=156	=156.	=156
0G	ex	2f\]	.	1B-	-fi-	1b-	-fi-
.	.	4eni\	.	.	.	.	.
.	.	4d\	.	.	.	.	.
.	.	2eni\	.	1G	-can-	1b-	-can-
.	.	2eni\	-mi-	.	.	.	.
=157	=157	=157	=157	=157	=157	=157	=157
1F	Pa-	1f	-num	1c	-tem,	1a	-tem,
1F	-tre	1c	et	1f	qui	2r	.
.	.	.	.	.	.	2a/	qui
=158.	=158	=158.	=158	=158.	=158	=158.	=158
2.BB-/	Fi-	1d	vi-	1f	ex	2b-\	ex
.	.	.	.	.	.	2b-\	Pa-
4C/	.	.	.	.	.	.	.
4D\	-li-	1d	-vi-	4F/	Pa-	2a/	-tre
4E\	.	.	.	4G/	.	.	.
2F\	-o-	.	.	4A/	.	2a/	Fi-
.	.	.	.	4B-\	.	.	.
=159.	=159	=159.	=159	=159.	=159	=159.	=159
1C	-que	1e-	-fi-	1.c	.	2g/	-li-
.	.	.	.	.	.	2g/	-o-
1C	pro-	1e-	-can-	.	.	1g	-que
.	.	.	.	[2G/	-tre	.	.
=160	=160	=160	=160	=160	=160	=160	=160
1GG	-ce-	1d	-tem,	2G/]	Qui	1b-	pro-
.	.	.	.	1g	Fi-	.	.
1D	-dit.	2r	.	.	.	1a	-ce-
.	.	2d\	qui	2f#i\	-li-	.	.
=161.	=161	=161.	=161	=161.	=161	=161.	=161
2r	.	2e-\	ex	1g	-o-	1g	-dit.
2C/	Qui	2e-\	Pa-	.	.	.	.
2C/	cum	2d\	-tre	[1G	-que	2r	.
2BB-/	Pa-	2d\	Fi-	.	.	2d/	Qui
=162.	=162	=162.	=162	=162.	=162	=162.	=162
2C/	-tre	2c\	-li-	2G/]	.	2.e/	cum
2C/	et	2c\	-o-	2A/	pro-	.	.
.	.	.	.	.	.	4f/	Pa-
2C/	Fi-	1c	-que	2G/	-ce-	1g	-tre
2C/	-li-	.	.	[2c\	-dit.	.	.
=163	=163	=163	=163	=163	=163	=163	=163
1C	-o	1e-	pro-	2c\]	.	2r	.
.	.	.	.	2c\	Qui	2g/	et
1r	.	1d	-ce-	2F/	cum	2a/	.
.	.	.	.	2G/	Pa-	2b-\	.
=164.	=164	=164.	=164	=164.	=164	=164.	=164
0r	.	1c	-dit.	2A/	-tre	2.cc\	Fi-
.	.	.	.	1c	et	.	.
.	.	.	.	.	.	8b-/L	.
.	.	.	.	.	.	8a/J	.
.	.	2r	.	.	.	1g	-li-
.	.	2G/	Qui	2d\	.	.	.
=165.	=165	=165.	=165	=165.	=165	=165.	=165
1r	.	2.A/	cum	2c\	Fi-	1f	-o
.	.	.	.	1f	.	.	.
.	.	4B-\	Pa-	.	.	.	.
1C	si-	1c	-tre	.	.	2r	.
.	.	.	.	2e\	-li-	2g/	si-
=166	=166	=166	=166	=166	=166	=166	=166
2.F\	-mul	2r	.	1f	-o	2a/	-mul
.	.	2c\	et	.	.	2a/	ad-
4E\	ad-	.	.	.	.	.	.
2F\	-o-	2d\	.	2r	.	2a/	-o-
2E\	-ra-	2e-\	.	2c\	si-	2g/	-ra-
=167.	=167	=167.	=167	=167.	=167	=167.	=167
1D	-tur	2.f\	Fi-	2d\	-mul	2a/	-tur
.	.	.	.	1A	ad-	4g/	et
.	.	8e-\L	.	.	.	4f/	.
.	.	8d\J	.	.	.	.	.
2r	.	1c	-li-	.	.	1e	con-
2AA/	et	.	.	2A/	-o-	.	.
=168.	=168	=168.	=168	=168.	=168	=168.	=168
1BB-	.	1B-	-o	2F/	-ra-	2.d/	-glo-
.	.	.	.	2G/	.	.	.
.	.	.	.	.	.	4e/	.
1AA	.	2r	.	2A/	.	4f/	.
.	.	.	.	.	.	4g/	.
.	.	2c\	si-	[2F/	-tur	[2a/	.
=169	=169	=169	=169	=169	=169	=169	=169
2r	.	2d\	-mul	2F/]	.	2a/]	.
2GG/	et	2d\	ad-	1G	et	2.b-\	.
2GG/	con-	2d\	-o-	.	.	.	.
.	.	.	.	.	.	4a/	-ri-
2AA/	-glo-	2c\	-ra-	2F/	con-	2cc\	-fi-
=170.	=170	=170.	=170	=170.	=170	=170.	=170
2GG/	-ri-	2d\	-tur	2G/	-glo-	2b-\	-ca-
2GG/	-fi-	4c\	et	1d	.	4a/	.
.	.	4B-\	.	.	.	4g/	.
1D	-ca-	1A	con-	.	.	2.f#i/	.
.	.	.	.	2d\	-ri-	.	.
.	.	.	.	.	.	4e/	.
=171.	=171	=171.	=171	=171.	=171	=171.	=171
1GG	-tur	2.G/	-glo-	2.B-\	-fi-	0g	-tur
.	.	4A/	.	4c\	.	.	.
1G	qui	4B-\	.	2d\	-ca-	.	.
.	.	4c\	.	.	.	.	.
.	.	[2d\	.	2G/	.	.	.
=172	=172	=172	=172	=172	=172	=172	=172
2F\	lo-	2d\]	.	2A/	.	1r	.
1G	-cu-	2.e-\	.	1B-	.	.	.
.	.	.	.	.	.	2r	.
.	.	4d\	-ri-	.	.	.	.
2F\	.	2f\	-fi-	2c\	.	2a/	qui
=173.	=173	=173.	=173	=173.	=173	=173.	=173
2G\	.	2e-\	-ca-	2B-\	.	2g/	lo-
4F\	.	4d\	.	4A/	.	2.b-\	-cu-
4E\	.	4c\	.	4G/	.	.	.
1D	-tus	2.Bni\	.	1F	.	.	.
.	.	.	.	.	.	4a/	.
.	.	.	.	.	.	4g/	-tus
.	.	4A/	.	.	.	4f/	.
=174.	=174	=174.	=174	=174.	=174	=174.	=174
1C	est	0c	-tur	1G	-tur	2e/	est
.	.	.	.	.	.	2.g/	per
2C/	per	.	.	1G	qui	.	.
.	.	.	.	.	.	4f/	.
2C/	Pro-	.	.	.	.	4e/	Pro-
.	.	.	.	.	.	4d/	.
=175	=175	=175	=175	=175	=175	=175	=175
1E	-phe-	1r	.	1G	lo-	1c	-phe-
1D	-tas.	2r	.	[1A	-cu-	1f	.
.	.	2d\	qui	.	.	.	.
=176.	=176	=176.	=176	=176.	=176	=176.	=176
2r	.	2c\	lo-	2A/]	.	2e/	-tas.
1C	Et	2.e-\	-cu-	2G/	-tus	1g	Et
.	.	.	.	1c	est	.	.
.	.	4d\	.	.	.	.	.
2C/	u-	4c\	-tus	.	.	2e/	u-
.	.	4B-\	.	.	.	.	.
=177.	=177	=177.	=177	=177.	=177	=177.	=177
2D\	-nam,	2A/	est	2F/	per	1a	-nam,
2AA/	san-	2.c\	per	2A/	.	.	.
2.C/	.	.	.	1E	Pro-	2g/	san-
.	.	4B-\	.	.	.	.	.
.	.	4A/	Pro-	.	.	[2cc\	.
4BB-/	.	4G/	.	.	.	.	.
=178	=178	=178	=178	=178	=178	=178	=178
1AA	-ctam,	1F	-phe-	1A	-phe-	2cc\]	.
.	.	.	.	.	.	4b-\	.
.	.	.	.	.	.	4a/	.
2r	.	1B-	.	1d	.	1g	-ctam,
2BB-/	ca-	.	.	.	.	.	.
=179.	=179	=179.	=179	=179.	=179	=179.	=179
2C/	-tho-	2A/	-tas.	1c	-tas.	1r	.
2AA/	.	1c	Et	.	.	.	.
1C	.	.	.	1r	.	1e	ca-
.	.	2A/	u-	.	.	.	.
=180.	=180	=180.	=180	=180.	=180	=180.	=180
2.D\	.	1d	-nam,	0r	.	2.f/	-tho-
4E\	.	.	.	.	.	4g/	.
2F\	.	2c\	san-	.	.	2a/	.
2D\	-li-	[2f\	.	.	.	2a/	-li-
=181	=181	=181	=181	=181	=181	=181	=181
1F	-cam	2f\]	.	1r	.	2a/	-cam
.	.	4e-\	.	.	.	2a/	et
.	.	4d\	.	.	.	.	.
2F\	et	1c	-ctam,	1f	et	2a/	a-
2F\	a-	.	.	.	.	2a/	-po-
=182.	=182	=182.	=182	=182.	=182	=182.	=182
2G\	-po-	1r	.	1d	a-	2b-\	-sto-
2.F\	-sto-	.	.	.	.	2.a/	.
.	.	1A	ca-	2c\	-po-	.	.
4E\	.	.	.	.	.	4g/	.
4D\	.	.	.	[2d\	-sto-	4f/	.
4C/	.	.	.	.	.	4e/	.
=183.	=183	=183.	=183	=183.	=183	=183.	=183
2.BB-/	.	2.B-\	-tho-	2d\]	.	2d/	.
.	.	.	.	1B-	.	2b-\	-li-
4AA/	-li-	4c\	.	.	.	.	.
1GG	-cam	2d\	.	.	.	2b-\	-cam
.	.	2d\	-li-	2G/	-li-	2b-\	ec-
=184	=184	=184	=184	=184	=184	=184	=184
1r	.	2d\	-cam	2F/	-cam	2a/	-cle-
.	.	2d\	et	2G/	ec-	1g	.
1D	ec-	2d\	a-	2.A/	-cle-	.	.
.	.	2d\	-po-	.	.	2f#i/	-si-
.	.	.	.	4B-\	.	.	.
=185.	=185	=185.	=185	=185.	=185	=185.	=185
2C/	-cle-	2e-\	-sto-	2c\	.	[0g	-am.
2BB-/	.	2.d\	.	4d\	.	.	.
.	.	.	.	4c\	.	.	.
1GG	.	.	.	4B-\	.	.	.
.	.	4c\	.	4A/	.	.	.
.	.	4B-\	-li-	[2G/	.	.	.
.	.	4A/	.	.	.	.	.
=186.	=186	=186.	=186	=186.	=186	=186.	=186
1C	.	2G/	-cam	2G/]	.	0g]	.
.	.	2e-\	ec-	2G/	-si-	.	.
1C	-si-	2e-\	-cle-	1c	.	.	.
.	.	2e-\	-si-	.	.	.	.
=187	=187	=187	=187	=187	=187	=187	=187
0Dl	-am.	0dl	-am.	0Al	-am.	0fl	.
!!LO:LB:i:g=z
=188||	=188||	=188||	=188||	=188||	=188||	=188||	=188||
*>D	*>D	*>D	*>D	*>D	*>D	*>D	*>D
*clefF4	*	*clefGv2	*	*clefGv2	*	*clefG2	*
*k[b-]	*	*k[b-e-]	*	*k[b-]	*	*k[b-]	*
*M3/1	*	*M3/1	*	*M3/1	*	*M3/1	*
*met(C|3)	*	*met(C|3)	*	*met(C|3)	*	*met(C|3)	*
!!section: Confiteor
!!!OMD: Confiteor
!	!	!	!	!	!	!LO:TX:X-40:Z=8:t=Canon at the lower fifth (two breves)	!
0GG	Con-	0.r	.	0G	Con-	0.r	.
1BB-	-fi-	.	.	1G	-fi-	.	.
=189	=189	=189	=189	=189	=189	=189	=189
1C	-te-	0.r	.	1G	-te-	0.r	.
0AA	-or	.	.	0F	-or	.	.
=190	=190	=190	=190	=190	=190	=190	=190
1GG	.	0.r	.	2G/	u-	0d	Con-
.	.	.	.	2A/	.	.	.
1r	.	.	.	2B-\	.	.	.
.	.	.	.	2c\	.	.	.
1r	.	.	.	1d	-num	1f	-fi-
=191	=191	=191	=191	=191	=191	=191	=191
0.r	.	0.r	.	1e	bap-	1g	-te-
.	.	.	.	1.c	.	0e	-or
.	.	.	.	2d\	.	.	.
=192	=192	=192	=192	=192	=192	=192	=192
1C	u-	0G	Con-	1e	.	0.r	.
0G	-num	.	.	0d	.	.	.
.	.	1B-	-fi-	.	.	.	.
=193	=193	=193	=193	=193	=193	=193	=193
1A	bap-	1c	-te-	1c	.	0.r	.
1.F	.	0A	-or	2f\	.	.	.
.	.	.	.	2e\	.	.	.
.	.	.	.	2d\	.	.	.
2E\	.	.	.	2c\	.	.	.
=194	=194	=194	=194	=194	=194	=194	=194
0.G	.	0.r	.	2B-\	.	0g	u-
.	.	.	.	2A/	.	.	.
.	.	.	.	1G	.	.	.
.	.	.	.	1g	.	1b-	-num
=195	=195	=195	=195	=195	=195	=195	=195
1C	.	0.r	.	1e	-tis-	1cc	bap-
0D	-tis-	.	.	0f#i	.	0a	-tis-
=196	=196	=196	=196	=196	=196	=196	=196
1E	-ma,	0c	u-	1g	-ma,	1g	-ma,
1C	.	.	.	1r	.	1r	.
1G	in	1e-	-num	1r	.	1g	in
=197	=197	=197	=197	=197	=197	=197	=197
0F	re-	1f	bap-	0.r	.	1a	re-
.	.	0d	-tis-	.	.	1a	-mis-
1G	.	.	.	.	.	1b-	-si-
=198	=198	=198	=198	=198	=198	=198	=198
1.A	-mis-	1c	-ma,	1e	in	1.cc	-o-
.	.	1r	.	2c\	re-	.	.
2G\	.	.	.	1d	-mis-	2b-\	.
2F\	-si-	1c	in	.	.	2a/	.
2E\	.	.	.	2e\	-si-	2g/	.
=199	=199	=199	=199	=199	=199	=199	=199
1D	-o-	1d	re-	1f	-o-	1f	-nem
1BB-	.	1d	-mis-	1d	.	1r	.
1C	.	1e-	-si-	2.c\	.	1r	.
.	.	.	.	4B-\	.	.	.
=200	=200	=200	=200	=200	=200	=200	=200
1D	-nem	1.f	-o-	1B-	.	0.r	.
1.F	pec-	.	.	0A	-nem	.	.
.	.	2e-\	.	.	.	.	.
.	.	2d\	.	.	.	.	.
2E\	.	2c\	.	.	.	.	.
=201	=201	=201	=201	=201	=201	=201	=201
1G	.	1B-	-nem	1G	pec-	1d	pec-
0D	-ca-	1r	.	1.d	-ca-	1.f	-ca-
.	.	1r	.	.	.	.	.
.	.	.	.	2c\	.	2e/	.
=202	=202	=202	=202	=202	=202	=202	=202
1F	-to-	0.r	.	0A	-to-	0d	-to-
0E-i	.	.	.	.	.	.	.
.	.	.	.	1G	.	1c	.
=203	=203	=203	=203	=203	=203	=203	=203
0BB-	.	1G	pec-	0B-	-rum.	0d	-rum.
.	.	1.B-	-ca-	.	.	.	.
1BB-	-rum.	.	.	1d	Et	1f	Et
.	.	2A/	.	.	.	.	.
=204	=204	=204	=204	=204	=204	=204	=204
1E-i	.	0G	-to-	1c	ex-	1g	ex-
1D	.	.	.	0d	-pec-	0a	-pec-
1r	.	1F#i	.	.	.	.	.
=205	=205	=205	=205	=205	=205	=205	=205
2GG/	Et	0G	-rum.	2B-\	.	1d	-to
2AA/	.	.	.	2c\	.	.	.
2BB-/	.	.	.	2d\	.	1r	.
2C/	.	.	.	2e-i\	.	.	.
1D	ex-	1B-	Et	1d	.	1r	.
=206	=206	=206	=206	=206	=206	=206	=206
1E-i	-pec-	1c	ex-	1G	.	1g	re-
0D	.	0d	-pec-	0A	-to	1g	-sur-
.	.	.	.	.	.	1f	-rec-
=207	=207	=207	=207	=207	=207	=207	=207
1GG	-to	1G	-to	0G	re-	1g	-ti-
0G	re-	1r	.	.	.	0b-	-o-
.	.	1r	.	1d	-sur-	.	.
=208	=208	=208	=208	=208	=208	=208	=208
1F	-sur-	1c	re-	0f	-rec-	0a	-nem
1F	-rec-	1c	-sur-	.	.	.	.
1G	-ti-	1B-	-rec-	1d	-ti-	1b-	mor-
=209	=209	=209	=209	=209	=209	=209	=209
1F	-o-	1c	-ti-	1A	-o-	1a	.
0C	.	0e-	-o-	0c	.	0g	-tu-
=210	=210	=210	=210	=210	=210	=210	=210
0D	-nem	0d	-nem	0f	-nem	2f/	-o-
.	.	.	.	.	.	2g/	.
.	.	.	.	.	.	2a/	.
.	.	.	.	.	.	2b-\	.
1C	mor-	1e-	mor-	1g	mor-	1cc	.
=211	=211	=211	=211	=211	=211	=211	=211
1D	.	1d	.	0f	.	0b-	.
0F	-tu-	0c	-tu-	.	.	.	.
.	.	.	.	1f	-tu-	1a	.
=212	=212	=212	=212	=212	=212	=212	=212
1.BB-	-o-	2B-\	-o-	1.d	-o-	0b-	-rum.
.	.	2c\	.	.	.	.	.
.	.	2d\	.	.	.	.	.
2C/	.	2e-\	.	2c\	.	.	.
1D	.	1f	.	2A/	.	1r	.
.	.	.	.	2B-\	.	.	.
=213	=213	=213	=213	=213	=213	=213	=213
1C	.	0e-	.	1c	.	0.r	.
0F	-rum.	.	.	1.A	-rum.	.	.
.	.	1d	.	.	.	.	.
.	.	.	.	2B-\	.	.	.
=214	=214	=214	=214	=214	=214	=214	=214
*M2/1	*	*	*	*M2/1	*	*M2/1	*
*met(C|)	*	*	*	*met(C|)	*	*met(C|)	*
!!primary-mensuration: met(C|)
1.C	Et	3%4e-V	-rum.	2c\	Et	0g	Et
.	.	.	.	2d\	.	.	.
.	.	.	.	[1e-i	vi-	.	.
.	.	3%2rZ	.	.	.	.	.
4BB-/	.	.	.	.	.	.	.
4AA/	.	.	.	.	.	.	.
=215	=215	=215	=215	=215	=215	=215	=215
!	!	!limitation in muse2ps to display tuplet bracket	!	!	!	!	!
1GG	vi-	3%4.r	.	2e-\]	.	0g	vi-
.	.	.	.	4d\	.	.	.
.	.	.	.	4c\	.	.	.
1G	.	.	.	2d\	.	.	.
.	.	.	.	2e\	.	.	.
=216	=216	=216	=216	=216	=216	=216	=216
*	*	*M2/1	*	*	*	*	*
*	*	*met(C|)	*	*	*	*	*
1.F	-tam	0c	Et	1f	-tam	1a	-tam
.	.	.	.	1r	.	2a/	ven-
2E\	.	.	.	.	.	[2g/	-tu-
=217	=217	=217	=217	=217	=217	=217	=217
2.C/	ven-	0c	vi-	0r	.	4g/]	.
.	.	.	.	.	.	4f/	.
.	.	.	.	.	.	4e/	.
4BB-/	.	.	.	.	.	4d/	.
1AA	-tu-	.	.	.	.	1e	.
=218	=218	=218	=218	=218	=218	=218	=218
1BB-	-ri	1d	-tam	4B-\	ven-	1d	-ri
.	.	.	.	4c\	.	.	.
.	.	.	.	4d\	.	.	.
.	.	.	.	4e\	.	.	.
1r	.	2d\	ven-	4f\	.	1r	.
.	.	.	.	4g\	.	.	.
.	.	[2c\	-tu-	[2a\	-tu-	.	.
=219	=219	=219	=219	=219	=219	=219	=219
1r	.	4c\]	.	2a\]	.	0a	se-
.	.	4B-\	.	.	.	.	.
.	.	4A/	.	1g	.	.	.
.	.	4G/	.	.	.	.	.
1D	se-	1A	.	.	.	.	.
.	.	.	.	2f#i\	.	.	.
=220	=220	=220	=220	=220	=220	=220	=220
1GG	.	1G	-ri	1g	-ri	0b-	.
1G	.	1r	.	2.d\	se-	.	.
.	.	.	.	4e\	.	.	.
=221	=221	=221	=221	=221	=221	=221	=221
2.F\	.	0d	se-	2f\	.	1a	-cu-
.	.	.	.	2F/	.	.	.
4E\	.	.	.	.	.	.	.
1D	.	.	.	2.A/	.	1a	-li
.	.	.	.	4B-\	.	.	.
=222	=222	=222	=222	=222	=222	=222	=222
0C	-cu-	0e-	.	1c	.	2r	.
.	.	.	.	.	.	1g	A-
.	.	.	.	1c	-cu-	.	.
.	.	.	.	.	.	[2cc\	.
=223	=223	=223	=223	=223	=223	=223	=223
0D	-li	1d	-cu-	0A	-li	4cc\]	.
.	.	.	.	.	.	4b-\	.
.	.	.	.	.	.	4a/	.
.	.	.	.	.	.	4g/	.
.	.	1d	-li	.	.	1f	.
=224	=224	=224	=224	=224	=224	=224	=224
2E\	A-	2r	.	1G	A-	1g	.
2C/	.	1c	A-	.	.	.	.
[1F	.	.	.	1F	.	1a	-men,
.	.	[2f\	.	.	.	.	.
=225	=225	=225	=225	=225	=225	=225	=225
2F\]	.	4f\]	.	1A	-men,	1r	.
.	.	4e-\	.	.	.	.	.
4E\	.	4d\	.	.	.	.	.
4F\	.	4c\	.	.	.	.	.
1G	.	1B-	.	2r	.	1d	A-
.	.	.	.	[2G/	se-	.	.
=226	=226	=226	=226	=226	=226	=226	=226
1E	.	1c	.	2G/]	.	1e	.
.	.	.	.	2G/	-cu-	.	.
1D	.	1d	-men,	2.A/	-li	1f	.
.	.	.	.	4B-\	.	.	.
=227	=227	=227	=227	=227	=227	=227	=227
1C	.	1r	.	0c	.	1g	.
1C	-men,	1G	A-	.	.	1e	-men,
=228	=228	=228	=228	=228	=228	=228	=228
0r	.	1A	.	1F	A-	2r	.
.	.	.	.	.	.	1f	A-
.	.	1B-	.	4B-\	.	.	.
.	.	.	.	4A/	.	.	.
.	.	.	.	4G/	.	[2g/	.
.	.	.	.	4F/	.	.	.
=229	=229	=229	=229	=229	=229	=229	=229
1r	.	1c	.	1E	.	4g/]	.
.	.	.	.	.	.	4f/	.
.	.	.	.	.	.	4e/	.
.	.	.	.	.	.	4d/	.
1AA	A-	1A	-men,	1e	.	1c	.
=230	=230	=230	=230	=230	=230	=230	=230
1D	.	2r	.	1d	-men,	1f	.
.	.	1B-	A-	.	.	.	.
4E-i\	.	.	.	1r	.	1g	.
4D\	.	.	.	.	.	.	.
4C/	.	[2c\	.	.	.	.	.
4BB-/	.	.	.	.	.	.	.
=231	=231	=231	=231	=231	=231	=231	=231
1AA	-men,	4c\]	.	1e	A-	2a/	-men,
.	.	4B-\	.	.	.	.	.
.	.	4A/	.	.	.	2.cc\	A-
.	.	4G/	.	.	.	.	.
1r	.	1F	.	2A/	.	.	.
.	.	.	.	.	.	4b-\	.
.	.	.	.	2c\	.	2a/	.
=232	=232	=232	=232	=232	=232	=232	=232
1r	.	1B-	.	1d	.	2g/	.
.	.	.	.	.	.	2f/	.
1AA	A-	1c	.	1A	.	1e	.
=233	=233	=233	=233	=233	=233	=233	=233
4BB-/	.	2d\	-men,	2.F/	.	2d/	-men,
4C/	.	.	.	.	.	.	.
4D\	.	2.f\	A-	.	.	2.a/	A-
4E\	.	.	.	4G/	.	.	.
2F\	.	.	.	4A/	.	.	.
.	.	4e-\	.	4F/	.	4g/	.
2BB-/	.	2d\	.	[2f\	.	2b-\	.
=234	=234	=234	=234	=234	=234	=234	=234
2F\	.	2c\	.	2f\]	.	2a/	.
2G\	.	2B-\	.	[1.dl	-men.	1g	.
1D	.	1A	.	.	.	.	.
.	.	.	.	.	.	2f#i/	.
=235	=235	=235	=235	=235	=235	=235	=235
0GGl	-men.	0Gl	-men.	0d]	.	0gl	-men.
==	==	==	==	==	==	==	==
*-	*-	*-	*-	*-	*-	*-	*-
!!!RDF**kern: l=long note in original notation
!!!RDF**kern: i=editorial accidental
!!!RDF**kern: V=start of tuplet marker
!!!RDF**kern: Z=end of tuplet marker
!!!ENC:	Jesse Rodin 8/8/2013
!!!END:	2013/08/09/
!!!EED:	Jesse Rodin
!!!EEV:	2013/08/11/
!!!ONB:	Translated from MusicXML and edited on 2013/08/11/ by Craig Sapp
!!muse2ps: T^@{OPR}^u^@{ONM}{. }@{OTL}^C^@{COM}^i2I150v85,85,85,130c180
